assets/images/down-circle-blue-arrow.svg

<svg width="32" height="32" viewBox="0 0 32 32" fill="none" xmlns="http://www.w3.org/2000/svg">
<path d="M16 29.3333C14.1555 29.3333 12.4222 28.9831 10.8 28.2827C9.17774 27.5831 7.76663 26.6333 6.56663 25.4333C5.36663 24.2333 4.41685 22.8222 3.71729 21.2C3.01685 19.5778 2.66663 17.8444 2.66663 16C2.66663 14.1556 3.01685 12.4222 3.71729 10.8C4.41685 9.17778 5.36663 7.76667 6.56663 6.56667C7.76663 5.36667 9.17774 4.41645 10.8 3.716C12.4222 3.01645 14.1555 2.66667 16 2.66667C17.8444 2.66667 19.5777 3.01645 21.2 3.716C22.8222 4.41645 24.2333 5.36667 25.4333 6.56667C26.6333 7.76667 27.5831 9.17778 28.2826 10.8C28.9831 12.4222 29.3333 14.1556 29.3333 16C29.3333 17.8444 28.9831 19.5778 28.2826 21.2C27.5831 22.8222 26.6333 24.2333 25.4333 25.4333C24.2333 26.6333 22.8222 27.5831 21.2 28.2827C19.5777 28.9831 17.8444 29.3333 16 29.3333ZM16 26.6667C18.9555 26.6667 21.4724 25.628 23.5506 23.5507C25.628 21.4724 26.6666 18.9556 26.6666 16C26.6666 13.0444 25.628 10.5276 23.5506 8.44933C21.4724 6.372 18.9555 5.33333 16 5.33333C13.0444 5.33333 10.528 6.372 8.45063 8.44933C6.3724 10.5276 5.33329 13.0444 5.33329 16C5.33329 18.9556 6.3724 21.4724 8.45063 23.5507C10.528 25.628 13.0444 26.6667 16 26.6667Z" fill="#3F51B5"/>
<path d="M16.0001 19.7334C15.8223 19.7334 15.6668 19.6667 15.5334 19.5334L11.8001 15.8C11.5779 15.5778 11.5223 15.3334 11.6334 15.0667C11.7445 14.8 11.9557 14.6667 12.2668 14.6667H19.7334C20.0445 14.6667 20.2557 14.8 20.3668 15.0667C20.4779 15.3334 20.4223 15.5778 20.2001 15.8L16.4668 19.5334C16.3334 19.6667 16.1779 19.7334 16.0001 19.7334Z" fill="#3F51B5"/>
</svg>

<svg xmlns="http://www.w3.org/2000/svg" width="32" height="32" fill="#3f51b5" xmlns:v="https://vecta.io/nano"><path d="M16 29.333c-1.844 0-3.578-.35-5.2-1.051s-3.033-1.649-4.233-2.849-2.15-2.611-2.849-4.233-1.051-3.356-1.051-5.2.35-3.578 1.051-5.2 1.649-3.033 2.849-4.233 2.611-2.15 4.233-2.851 3.355-1.049 5.2-1.049 3.578.35 5.2 1.049 3.033 1.651 4.233 2.851 2.15 2.611 2.849 4.233 1.051 3.356 1.051 5.2-.35 3.578-1.051 5.2-1.649 3.033-2.849 4.233-2.611 2.15-4.233 2.849-3.356 1.051-5.2 1.051zm0-2.667c2.956 0 5.472-1.039 7.551-3.116s3.116-4.595 3.116-7.551-1.039-5.472-3.116-7.551S18.956 5.333 16 5.333s-5.472 1.039-7.549 3.116S5.333 13.044 5.333 16s1.039 5.472 3.117 7.551 4.594 3.116 7.549 3.116zm0-6.933a.64.64 0 0 1-.467-.2L11.8 15.8c-.222-.222-.278-.467-.167-.733s.322-.4.633-.4h7.467c.311 0 .522.133.633.4s.055.511-.167.733l-3.733 3.733a.64.64 0 0 1-.467.2z"/></svg>
